view-dashboard.svg

<svg fill="currentColor" viewBox="0 0 24 24"><path d="M13 3v6h8V3m-8 18h8V11h-8M3 21h8v-6H3m0-2h8V3H3z"/></svg>

<svg  viewBox="0 0 24 24" fill="currentColor"><path  d="M13,3V9H21V3M13,21H21V11H13M3,21H11V15H3M3,13H11V3H3V13Z"/></svg>
